Hatter-kde/actions/16/project-development-new-template.svg

<svg xmlns="http://www.w3.org/2000/svg" viewBox="0 0 16 16">
  <defs id="defs3051">
    <style type="text/css" id="current-color-scheme">
      .ColorScheme-Text {
        color:#363636;
      }
      </style>
  </defs>
 <path 
     style="fill:currentColor;fill-opacity:1;stroke:none" 
     d="M 2 2 L 2 14 L 8 14 L 8 13 L 3 13 L 3 5 L 13 5 L 13 8 L 14 8 L 14 2 L 3 2 L 2 2 z M 11.001953 8.0019531 L 10.427734 9.6152344 L 8.8808594 8.8789062 L 9.6152344 10.425781 L 8.0019531 11 L 9.6152344 11.574219 L 8.8789062 13.121094 L 10.425781 12.386719 L 11 14 L 11.574219 12.386719 L 13.121094 13.121094 L 12.386719 11.574219 L 14 11 L 12.386719 10.427734 L 13.121094 8.8808594 L 11.574219 9.6152344 L 11.001953 8.0019531 z "
     class="ColorScheme-Text"/>
</svg>

<?xml version="1.0" encoding="UTF-8"?>
<svg viewBox="0 0 16 16" xmlns="http://www.w3.org/2000/svg">
 <defs id="defs3051">
  <style id="current-color-scheme" type="text/css">.ColorScheme-Text {
        color:#363636;
      }</style>
 </defs>
 <path class="ColorScheme-Text" d="m2 2v12h6v-1h-5v-8h10v3h1v-6h-11-1zm9.002 6.002-0.57422 1.6133-1.5469-0.73633 0.73438 1.5469-1.6133 0.57422 1.6133 0.57422-0.73633 1.5469 1.5469-0.73438 0.57422 1.6133 0.57422-1.6133 1.5469 0.73438-0.73438-1.5469 1.6133-0.57422-1.6133-0.57227 0.73438-1.5469-1.5469 0.73438-0.57227-1.6133z" fill="currentColor"/>
</svg>
